assets/align-left.svg

<svg xmlns="http://www.w3.org/2000/svg" fill="none" viewBox="0 0 18 10">
  <path fill="#2A2238" d="M1 .5H.5v1H1v-1Zm16 1c.2761 0 .5-.22386.5-.5 0-.276142-.2239-.5-.5-.5v1Zm-16 0h16v-1H1v1Zm0 3H.5v1H1v-1Zm16 1c.2761 0 .5-.22386.5-.5s-.2239-.5-.5-.5v1Zm-16 0h16v-1H1v1Zm0 3H.5v1H1v-1Zm16 1c.2761 0 .5-.22386.5-.5s-.2239-.5-.5-.5v1Zm-16 0h16v-1H1v1Zm0-7H.5v1H1v-1Zm8 1c.27614 0 .5-.22386.5-.5s-.22386-.5-.5-.5v1Zm-8 0h8v-1H1v1Zm0 3H.5v1H1v-1Zm8 1c.27614 0 .5-.22386.5-.5s-.22386-.5-.5-.5v1Zm-8 0h8v-1H1v1Z"/>
</svg>

<svg width="18" height="10" viewBox="0 0 18 10" fill="none" xmlns="http://www.w3.org/2000/svg">
<path d="M1 0.5H0.5V1.5H1V0.5ZM17 1.5C17.2761 1.5 17.5 1.27614 17.5 1C17.5 0.723858 17.2761 0.5 17 0.5V1.5ZM1 1.5H17V0.5H1V1.5Z" fill="#2A2238"/>
<path d="M1 4.5H0.5V5.5H1V4.5ZM17 5.5C17.2761 5.5 17.5 5.27614 17.5 5C17.5 4.72386 17.2761 4.5 17 4.5V5.5ZM1 5.5H17V4.5H1V5.5Z" fill="#2A2238"/>
<path d="M1 8.5H0.5V9.5H1V8.5ZM17 9.5C17.2761 9.5 17.5 9.27614 17.5 9C17.5 8.72386 17.2761 8.5 17 8.5V9.5ZM1 9.5H17V8.5H1V9.5Z" fill="#2A2238"/>
<path d="M1 2.5H0.5V3.5H1V2.5ZM9 3.5C9.27614 3.5 9.5 3.27614 9.5 3C9.5 2.72386 9.27614 2.5 9 2.5V3.5ZM1 3.5H9V2.5H1V3.5Z" fill="#2A2238"/>
<path d="M1 6.5H0.5V7.5H1V6.5ZM9 7.5C9.27614 7.5 9.5 7.27614 9.5 7C9.5 6.72386 9.27614 6.5 9 6.5V7.5ZM1 7.5H9V6.5H1V7.5Z" fill="#2A2238"/>
</svg>
